documentation/public/assets/images/toggle-group.svg

<svg width="202" height="33" viewBox="0 0 202 33" fill="none" xmlns="http://www.w3.org/2000/svg">
<path d="M4 0.5H57.5V32.5H4C2.067 32.5 0.5 30.933 0.5 29V4C0.5 2.067 2.067 0.5 4 0.5Z" fill="white"/>
<path d="M20.4545 21H17.0043V10.8182H20.5241C21.535 10.8182 22.4034 11.022 23.1293 11.4297C23.8584 11.834 24.4186 12.4157 24.8097 13.1747C25.2008 13.9337 25.3963 14.8419 25.3963 15.8991C25.3963 16.9598 25.1991 17.8712 24.8047 18.6335C24.4136 19.3958 23.8485 19.9808 23.1094 20.3885C22.3736 20.7962 21.4886 21 20.4545 21ZM18.8487 19.4041H20.3651C21.0743 19.4041 21.666 19.2749 22.1399 19.0163C22.6139 18.7545 22.9702 18.3651 23.2088 17.848C23.4474 17.3277 23.5668 16.678 23.5668 15.8991C23.5668 15.1203 23.4474 14.474 23.2088 13.9602C22.9702 13.4432 22.6172 13.0571 22.1499 12.8018C21.6858 12.5433 21.1091 12.4141 20.4197 12.4141H18.8487V19.4041ZM29.2667 21.1541C28.7828 21.1541 28.3469 21.0679 27.9592 20.8956C27.5747 20.7199 27.2698 20.4614 27.0444 20.12C26.8223 19.7786 26.7113 19.3577 26.7113 18.8572C26.7113 18.4264 26.7908 18.0701 26.9499 17.7884C27.109 17.5066 27.3261 17.2812 27.6012 17.1122C27.8763 16.9432 28.1862 16.8156 28.5309 16.7294C28.8789 16.6399 29.2385 16.5753 29.6097 16.5355C30.0572 16.4891 30.4201 16.4477 30.6985 16.4112C30.9769 16.3714 31.1791 16.3118 31.305 16.2322C31.4343 16.1494 31.4989 16.0218 31.4989 15.8494V15.8196C31.4989 15.4451 31.3879 15.1551 31.1658 14.9496C30.9438 14.7441 30.6239 14.6413 30.2063 14.6413C29.7655 14.6413 29.4158 14.7375 29.1573 14.9297C28.9021 15.1219 28.7298 15.349 28.6403 15.6108L26.9599 15.3722C27.0924 14.9081 27.3112 14.5204 27.6161 14.2088C27.921 13.8939 28.2939 13.6586 28.7347 13.5028C29.1755 13.3438 29.6628 13.2642 30.1964 13.2642C30.5643 13.2642 30.9305 13.3073 31.2951 13.3935C31.6597 13.4796 31.9928 13.6222 32.2944 13.821C32.596 14.0166 32.838 14.2834 33.0202 14.6214C33.2058 14.9595 33.2987 15.3821 33.2987 15.8892V21H31.5685V19.951H31.5089C31.3995 20.1631 31.2454 20.362 31.0465 20.5476C30.851 20.7299 30.604 20.8774 30.3058 20.9901C30.0108 21.0994 29.6644 21.1541 29.2667 21.1541ZM29.734 19.8317C30.0953 19.8317 30.4085 19.7604 30.6737 19.6179C30.9388 19.4721 31.1426 19.2798 31.2852 19.0412C31.431 18.8026 31.5039 18.5424 31.5039 18.2607V17.3608C31.4476 17.4072 31.3514 17.4503 31.2156 17.4901C31.083 17.5298 30.9338 17.5646 30.7681 17.5945C30.6024 17.6243 30.4383 17.6508 30.2759 17.674C30.1135 17.6972 29.9727 17.7171 29.8533 17.7337C29.5849 17.7701 29.3446 17.8298 29.1325 17.9126C28.9203 17.9955 28.753 18.1115 28.6303 18.2607C28.5077 18.4065 28.4464 18.5954 28.4464 18.8274C28.4464 19.1589 28.5674 19.4091 28.8093 19.5781C29.0513 19.7472 29.3595 19.8317 29.734 19.8317ZM35.9535 23.8636C35.7082 23.8636 35.4812 23.8438 35.2724 23.804C35.0669 23.7675 34.9028 23.7244 34.7802 23.6747L35.1978 22.2727C35.4596 22.349 35.6933 22.3854 35.8988 22.3821C36.1043 22.3788 36.2849 22.3142 36.4407 22.1882C36.5998 22.0656 36.734 21.8601 36.8434 21.5717L36.9975 21.1591L34.2283 13.3636H36.1374L37.8974 19.1307H37.9769L39.7418 13.3636H41.6559L38.5984 21.9247C38.4558 22.3291 38.2669 22.6754 38.0316 22.9638C37.7963 23.2554 37.5079 23.4775 37.1665 23.63C36.8285 23.7857 36.4241 23.8636 35.9535 23.8636Z" fill="#545454"/>
<path d="M4 0.5H57.5V32.5H4C2.067 32.5 0.5 30.933 0.5 29V4C0.5 2.067 2.067 0.5 4 0.5Z" stroke="#AFAFAF"/>
<path d="M57.5 0.5H126.5V32.5H57.5V0.5Z" fill="white"/>
<path d="M76.147 21L73.2734 10.8182H75.2571L77.0916 18.3004H77.1861L79.1449 10.8182H80.9496L82.9134 18.3054H83.0028L84.8374 10.8182H86.821L83.9474 21H82.1278L80.0895 13.8558H80.0099L77.9666 21H76.147ZM90.6218 21.1491C89.8562 21.1491 89.195 20.9901 88.6381 20.6719C88.0846 20.3504 87.6587 19.8963 87.3604 19.3097C87.0621 18.7197 86.913 18.0253 86.913 17.2266C86.913 16.4411 87.0621 15.7517 87.3604 15.1584C87.6621 14.5618 88.083 14.0978 88.6232 13.7663C89.1635 13.4316 89.7982 13.2642 90.5273 13.2642C90.998 13.2642 91.4421 13.3404 91.8597 13.4929C92.2807 13.642 92.6519 13.8741 92.9734 14.1889C93.2982 14.5038 93.5534 14.9048 93.739 15.392C93.9246 15.8759 94.0174 16.4527 94.0174 17.1222V17.674H87.7582V16.4609H92.2923C92.2889 16.1162 92.2144 15.8097 92.0685 15.5412C91.9227 15.2694 91.7189 15.0556 91.457 14.8999C91.1985 14.7441 90.8969 14.6662 90.5522 14.6662C90.1843 14.6662 89.8612 14.7557 89.5827 14.9347C89.3043 15.1103 89.0872 15.3423 88.9315 15.6307C88.779 15.9157 88.7011 16.2289 88.6978 16.5703V17.6293C88.6978 18.0734 88.779 18.4545 88.9414 18.7727C89.1038 19.0876 89.3308 19.3295 89.6225 19.4986C89.9142 19.6643 90.2556 19.7472 90.6467 19.7472C90.9085 19.7472 91.1455 19.7107 91.3576 19.6378C91.5697 19.5616 91.7537 19.4505 91.9094 19.3047C92.0652 19.1589 92.1829 18.9782 92.2624 18.7628L93.9428 18.9517C93.8368 19.3958 93.6346 19.7836 93.3363 20.1151C93.0413 20.4432 92.6635 20.6984 92.2028 20.8807C91.7421 21.0597 91.2151 21.1491 90.6218 21.1491ZM98.9206 21.1491C98.155 21.1491 97.4938 20.9901 96.937 20.6719C96.3835 20.3504 95.9576 19.8963 95.6593 19.3097C95.361 18.7197 95.2118 18.0253 95.2118 17.2266C95.2118 16.4411 95.361 15.7517 95.6593 15.1584C95.9609 14.5618 96.3818 14.0978 96.9221 13.7663C97.4623 13.4316 98.097 13.2642 98.8262 13.2642C99.2968 13.2642 99.7409 13.3404 100.159 13.4929C100.579 13.642 100.951 13.8741 101.272 14.1889C101.597 14.5038 101.852 14.9048 102.038 15.392C102.223 15.8759 102.316 16.4527 102.316 17.1222V17.674H96.057V16.4609H100.591C100.588 16.1162 100.513 15.8097 100.367 15.5412C100.222 15.2694 100.018 15.0556 99.7559 14.8999C99.4973 14.7441 99.1957 14.6662 98.851 14.6662C98.4831 14.6662 98.16 14.7557 97.8816 14.9347C97.6032 15.1103 97.3861 15.3423 97.2303 15.6307C97.0778 15.9157 96.9999 16.2289 96.9966 16.5703V17.6293C96.9966 18.0734 97.0778 18.4545 97.2402 18.7727C97.4026 19.0876 97.6297 19.3295 97.9213 19.4986C98.213 19.6643 98.5544 19.7472 98.9455 19.7472C99.2073 19.7472 99.4443 19.7107 99.6564 19.6378C99.8685 19.5616 100.052 19.4505 100.208 19.3047C100.364 19.1589 100.482 18.9782 100.561 18.7628L102.242 18.9517C102.136 19.3958 101.933 19.7836 101.635 20.1151C101.34 20.4432 100.962 20.6984 100.502 20.8807C100.041 21.0597 99.5139 21.1491 98.9206 21.1491ZM105.479 18.6037L105.474 16.4311H105.763L108.507 13.3636H110.61L107.234 17.1222H106.862L105.479 18.6037ZM103.839 21V10.8182H105.638V21H103.839ZM108.631 21L106.146 17.5249L107.359 16.2571L110.784 21H108.631Z" fill="#545454"/>
<path d="M57.5 0.5H126.5V32.5H57.5V0.5Z" stroke="#AFAFAF"/>
<path d="M127 1H198C199.657 1 201 2.34315 201 4V29C201 30.6569 199.657 32 198 32H127V1Z" fill="white"/>
<path d="M143.004 10.8182H145.261L148.284 18.196H148.403L151.426 10.8182H153.683V21H151.913V14.005H151.819L149.005 20.9702H147.683L144.869 13.9901H144.774V21H143.004V10.8182ZM158.943 21.1491C158.197 21.1491 157.551 20.9851 157.004 20.657C156.457 20.3288 156.033 19.8698 155.732 19.2798C155.433 18.6899 155.284 18.0005 155.284 17.2116C155.284 16.4228 155.433 15.7318 155.732 15.1385C156.033 14.5452 156.457 14.0845 157.004 13.7564C157.551 13.4283 158.197 13.2642 158.943 13.2642C159.689 13.2642 160.335 13.4283 160.882 13.7564C161.429 14.0845 161.852 14.5452 162.15 15.1385C162.451 15.7318 162.602 16.4228 162.602 17.2116C162.602 18.0005 162.451 18.6899 162.15 19.2798C161.852 19.8698 161.429 20.3288 160.882 20.657C160.335 20.9851 159.689 21.1491 158.943 21.1491ZM158.953 19.7074C159.357 19.7074 159.696 19.5964 159.967 19.3743C160.239 19.1489 160.441 18.8473 160.574 18.4695C160.71 18.0916 160.778 17.6707 160.778 17.2067C160.778 16.7393 160.71 16.3168 160.574 15.9389C160.441 15.5578 160.239 15.2545 159.967 15.0291C159.696 14.8037 159.357 14.6911 158.953 14.6911C158.539 14.6911 158.194 14.8037 157.919 15.0291C157.647 15.2545 157.443 15.5578 157.308 15.9389C157.175 16.3168 157.109 16.7393 157.109 17.2067C157.109 17.6707 157.175 18.0916 157.308 18.4695C157.443 18.8473 157.647 19.1489 157.919 19.3743C158.194 19.5964 158.539 19.7074 158.953 19.7074ZM165.93 16.5256V21H164.13V13.3636H165.85V14.6612H165.939C166.115 14.2337 166.395 13.8939 166.78 13.642C167.167 13.3902 167.646 13.2642 168.216 13.2642C168.743 13.2642 169.202 13.3769 169.594 13.6023C169.988 13.8277 170.293 14.1541 170.508 14.5817C170.727 15.0092 170.835 15.5279 170.831 16.1378V21H169.032V16.4162C169.032 15.9058 168.899 15.5064 168.634 15.218C168.372 14.9297 168.009 14.7855 167.545 14.7855C167.23 14.7855 166.95 14.8551 166.705 14.9943C166.463 15.1302 166.273 15.3274 166.133 15.5859C165.997 15.8445 165.93 16.1577 165.93 16.5256ZM176.474 13.3636V14.7557H172.084V13.3636H176.474ZM173.168 11.5341H174.968V18.7031C174.968 18.9451 175.004 19.1307 175.077 19.2599C175.153 19.3859 175.253 19.4721 175.376 19.5185C175.498 19.5649 175.634 19.5881 175.783 19.5881C175.896 19.5881 175.999 19.5798 176.091 19.5632C176.188 19.5466 176.26 19.5317 176.31 19.5185L176.613 20.9254C176.517 20.9586 176.38 20.995 176.201 21.0348C176.025 21.0746 175.81 21.0978 175.555 21.1044C175.104 21.1177 174.698 21.0497 174.336 20.9006C173.975 20.7481 173.689 20.5128 173.476 20.1946C173.268 19.8764 173.165 19.4787 173.168 19.0014V11.5341ZM179.943 16.5256V21H178.143V10.8182H179.903V14.6612H179.993C180.172 14.2304 180.449 13.8906 180.823 13.642C181.201 13.3902 181.682 13.2642 182.265 13.2642C182.795 13.2642 183.258 13.3752 183.652 13.5973C184.046 13.8194 184.351 14.1442 184.567 14.5717C184.786 14.9993 184.895 15.5213 184.895 16.1378V21H183.095V16.4162C183.095 15.9025 182.963 15.5031 182.697 15.218C182.436 14.9297 182.068 14.7855 181.594 14.7855C181.276 14.7855 180.991 14.8551 180.739 14.9943C180.49 15.1302 180.295 15.3274 180.152 15.5859C180.013 15.8445 179.943 16.1577 179.943 16.5256Z" fill="#0F67F5"/>
<path d="M127 1H198C199.657 1 201 2.34315 201 4V29C201 30.6569 199.657 32 198 32H127V1Z" stroke="#0F67F5" stroke-width="2"/>
</svg>

<svg width="202" height="33" fill="none" xmlns="http://www.w3.org/2000/svg"><path d="M4 .5h53.5v32H4A3.5 3.5 0 0 1 .5 29V4A3.5 3.5 0 0 1 4 .5Z" fill="#fff"/><path d="M20.45 21H17V10.82h3.52c1.02 0 1.88.2 2.6.61.74.4 1.3.99 1.69 1.74.4.76.59 1.67.59 2.73s-.2 1.97-.6 2.73a4.02 4.02 0 0 1-1.7 1.76 5.4 5.4 0 0 1-2.65.61Zm-1.6-1.6h1.52c.7 0 1.3-.13 1.77-.38.47-.27.83-.65 1.07-1.17.24-.52.36-1.17.36-1.95a4.6 4.6 0 0 0-.36-1.94 2.5 2.5 0 0 0-1.06-1.16 3.52 3.52 0 0 0-1.73-.39h-1.57v7Zm10.42 1.75c-.49 0-.92-.08-1.31-.25a2.13 2.13 0 0 1-.92-.78 2.27 2.27 0 0 1-.33-1.26c0-.43.08-.79.24-1.07.16-.28.38-.5.65-.68.28-.17.59-.3.93-.38.35-.09.7-.15 1.08-.2l1.09-.12c.28-.04.48-.1.6-.18.13-.08.2-.2.2-.38v-.03c0-.37-.11-.66-.33-.87-.23-.2-.55-.3-.96-.3-.44 0-.8.09-1.05.28-.26.2-.43.42-.52.68l-1.68-.24a2.68 2.68 0 0 1 1.77-1.87 4.76 4.76 0 0 1 2.56-.1c.37.08.7.22 1 .42.3.2.55.46.73.8.19.34.28.76.28 1.27V21h-1.73v-1.05h-.06A2.2 2.2 0 0 1 30.3 21c-.3.1-.65.16-1.04.16Zm.46-1.32c.37 0 .68-.07.94-.21a1.52 1.52 0 0 0 .83-1.36v-.9a.85.85 0 0 1-.28.13l-.45.1a13.84 13.84 0 0 1-.92.14c-.27.04-.5.1-.72.18-.21.09-.38.2-.5.35a.85.85 0 0 0-.18.57c0 .33.12.58.36.75.24.17.55.25.92.25Zm6.22 4.03a3.64 3.64 0 0 1-1.17-.19l.42-1.4c.26.08.5.12.7.11.2 0 .38-.07.54-.2.16-.11.3-.32.4-.6l.16-.42-2.77-7.8h1.9l1.77 5.77h.08l1.76-5.77h1.92l-3.06 8.56c-.14.4-.33.76-.57 1.04-.23.3-.52.52-.86.67-.34.16-.75.23-1.22.23Z" fill="#545454"/><path d="M4 .5h53.5v32H4A3.5 3.5 0 0 1 .5 29V4A3.5 3.5 0 0 1 4 .5Z" stroke="#AFAFAF"/><path d="M57.5.5h69v32h-69V.5Z" fill="#fff"/><path d="m76.15 21-2.88-10.18h1.99l1.83 7.48h.1l1.95-7.48h1.81l1.96 7.49h.1l1.83-7.5h1.98L83.95 21h-1.82l-2.04-7.14h-.08L77.97 21h-1.82Zm14.47.15a3.9 3.9 0 0 1-1.98-.48 3.23 3.23 0 0 1-1.28-1.36 4.56 4.56 0 0 1-.45-2.08c0-.79.15-1.48.45-2.07a3.39 3.39 0 0 1 3.17-1.9c.47 0 .91.08 1.33.23a3.19 3.19 0 0 1 1.88 1.9c.18.49.28 1.06.28 1.73v.55h-6.26v-1.2h4.53a2 2 0 0 0-.22-.93 1.63 1.63 0 0 0-.61-.64 1.72 1.72 0 0 0-.9-.23c-.38 0-.7.09-.98.26-.28.18-.5.41-.65.7a2 2 0 0 0-.23.94v1.06c0 .44.08.82.24 1.14.16.32.4.56.68.73.3.16.64.25 1.03.25.26 0 .5-.04.7-.11.22-.08.4-.19.56-.34.16-.14.27-.32.35-.54l1.68.2c-.1.44-.3.82-.6 1.16-.3.32-.68.58-1.14.76-.46.18-.98.27-1.58.27Zm8.3 0c-.77 0-1.43-.16-1.98-.48a3.23 3.23 0 0 1-1.28-1.36 4.56 4.56 0 0 1-.45-2.08c0-.79.15-1.48.45-2.07a3.38 3.38 0 0 1 3.17-1.9c.47 0 .91.08 1.33.23a3.19 3.19 0 0 1 1.88 1.9c.18.49.28 1.06.28 1.73v.55h-6.26v-1.2h4.53a2 2 0 0 0-.22-.93 1.62 1.62 0 0 0-.61-.64 1.72 1.72 0 0 0-.9-.23c-.38 0-.7.09-.98.26-.28.18-.5.41-.65.7a2 2 0 0 0-.23.94v1.06c0 .44.08.82.24 1.14.16.32.39.56.68.73.3.16.63.25 1.03.25.26 0 .5-.04.7-.11.22-.08.4-.19.56-.34.15-.14.27-.32.35-.54l1.68.2c-.1.44-.3.82-.6 1.16-.3.32-.68.58-1.14.76-.46.18-.99.27-1.58.27Zm6.56-2.55v-2.17h.28l2.75-3.07h2.1l-3.38 3.76h-.37l-1.38 1.48Zm-1.64 2.4V10.82h1.8V21h-1.8Zm4.8 0-2.5-3.48 1.22-1.26 3.42 4.74h-2.15Z" fill="#545454"/><path d="M57.5.5h69v32h-69V.5Z" stroke="#AFAFAF"/><path d="M127 1h71a3 3 0 0 1 3 3v25a3 3 0 0 1-3 3h-71V1Z" fill="#fff"/><path d="M143 10.82h2.26l3.02 7.38h.12l3.03-7.38h2.25V21h-1.77v-7h-.1l-2.8 6.97h-1.33l-2.81-6.98h-.1V21H143V10.82Zm15.94 10.33a3.7 3.7 0 0 1-1.94-.5 3.34 3.34 0 0 1-1.27-1.37 4.52 4.52 0 0 1-.45-2.07c0-.79.15-1.48.45-2.07.3-.6.73-1.06 1.27-1.38a3.7 3.7 0 0 1 1.94-.5c.75 0 1.4.17 1.94.5.55.32.97.79 1.27 1.38.3.6.45 1.28.45 2.07a4.5 4.5 0 0 1-.45 2.07 3.3 3.3 0 0 1-1.27 1.38c-.54.33-1.2.49-1.94.49Zm.01-1.44c.4 0 .75-.11 1.02-.34.27-.22.47-.52.6-.9.14-.38.2-.8.2-1.26 0-.47-.06-.9-.2-1.27a2 2 0 0 0-.6-.91 1.53 1.53 0 0 0-1.02-.34c-.41 0-.76.11-1.03.34a2 2 0 0 0-.61.9 3.95 3.95 0 0 0 0 2.54c.13.38.34.68.6.9.28.23.63.34 1.04.34Zm6.98-3.18V21h-1.8v-7.64h1.72v1.3h.09c.18-.43.46-.77.84-1.02.39-.25.87-.38 1.44-.38.52 0 .98.12 1.37.34.4.23.7.55.92.98.22.43.33.95.32 1.56V21h-1.8v-4.58c0-.51-.13-.91-.4-1.2a1.4 1.4 0 0 0-1.09-.43c-.31 0-.59.07-.83.2-.25.14-.44.34-.58.6a2 2 0 0 0-.2.94Zm10.54-3.17v1.4h-4.39v-1.4h4.4Zm-3.3-1.83h1.8v7.17c0 .25.03.43.1.56.08.13.18.21.3.26.13.04.26.07.41.07a1.74 1.74 0 0 0 .53-.07l.3 1.4a3.98 3.98 0 0 1-1.06.18c-.45.02-.85-.05-1.21-.2a1.9 1.9 0 0 1-.86-.7 2.14 2.14 0 0 1-.31-1.2v-7.47Zm6.77 5V21h-1.8V10.82h1.76v3.84h.1c.17-.43.45-.77.82-1.02.38-.25.86-.38 1.44-.38.53 0 1 .12 1.4.34.39.22.7.54.9.97.23.43.34.95.34 1.57V21h-1.8v-4.58c0-.52-.14-.92-.4-1.2a1.41 1.41 0 0 0-1.1-.43c-.32 0-.6.07-.86.2-.25.14-.45.34-.59.6-.14.25-.2.57-.2.94Z" fill="#0F67F5"/><path d="M127 1h71a3 3 0 0 1 3 3v25a3 3 0 0 1-3 3h-71V1Z" stroke="#0F67F5" stroke-width="2"/></svg>
